!!!!SEGMENT: pl-wtm--r-1143-1--001-003_dobrzynski-ignacy-feliks--studium-na-temat-oryginalny-op-62-piu-vivace.krn
!!!cenid: 18xx:1750
!!!COM: Dobrzyński, Ignacy Feliks
!!!COM-rismID: pe30020642
!!!CDT: 1807/02/15-1867/10/09
!!!CNT: Polish
!!!OPR: Studium na temat oryginalny op. 62
!!!OTL: Piu vivace
!!!OMV: 003
!!!PDT: 1867
!!!AGN: Secular; Variations
!!!YEC: Copyright 2022 Narodowy Instytut Fryderyka Chopina (https://polishscores.org)
!!!YEM: License CC-BY-4.0 (https://creativecommons.org/licenses/by/4.0)
!!!SMS-siglum: PL-Wtm
!!!SMS-shelfmark: R 1143/1
!!!SMS-shelfwork: 001-003 M
!!!SMS-variant:
!!!SMS-altvar:
!!!NIFC-rismSourceID: 1001057385
!!!NIFC-rismChildID: 1001057385
!!!NIFC-islandoraID:
!!!URL-pdf-islandora:
!!!URL-scan:
!!!IIIF:
!!!ONB-nifc: UWAGA: numeracja części zgodna z numerami w źródle. Na podstawie partytury (folder r1143-1)
!!!AIN: 1 cello 1 viola 2 violn
!!!key: A
!!!OMD:
!!!OMD-mod: Più vivace
**kern	**dynam	**kern	**dynam	**kern	**dynam	**kern	**dynam
*part4	*	*part3	*	*part2	*	*part1	*
*staff4	*	*staff3	*	*staff2	*	*staff1	*
*Icello	*	*Iviola	*	*Ivioln	*	*Ivioln	*
*I"Violoncello	*	*I"Viola.	*	*I"Violino Secondo	*	*I"Violino Primo.	*
*	*	*mI"Viola	*	*mI"Violino II	*	*mI"Violino I	*
*I'vlc	*	*I'vla	*	*I'vn 2	*	*I'vn 1	*
*clefF4	*	*clefC3	*	*clefG2	*	*clefG2	*
*k[f#c#g#]	*	*k[f#c#g#]	*	*k[f#c#g#]	*	*k[f#c#g#]	*
*A:	*	*A:	*	*A:	*	*A:	*
*M4/4	*	*M4/4	*	*M4/4	*	*M4/4	*
*met(c)	*	*met(c)	*	*met(c)	*	*met(c)	*
=1	=1	=1	=1	=1	=1	=1	=1
!	!	!	!	!	!	!LO:TX:a:i:t=Più vivace:mod=	!
!	!LO:DY:b	!	!	!	!	!LO:TX:a:i:t=No 3.	!
16c#\LL	f	2r	.	2e/	f	1ryy	.
16B\	.	.	.	.	.	.	.
16A\	.	.	.	.	.	.	.
16G#\JJ	.	.	.	.	.	.	.
16F#\LL	.	.	.	.	.	.	.
16E\	.	.	.	.	.	.	.
16D\	.	.	.	.	.	.	.
16C#\JJ	.	.	.	.	.	.	.
!	!	!	!LO:MO:null:mod=!LO&colon;DY&colon;ed=brack	!	!	!	!
!	!	!	!	!	!	!	!
!	!	!	!LO:MO:null:mod=f	!	!	!	!
16D\LL	.	2d\	.	4f#^>/	.	.	.
16E\	.	.	.	.	.	.	.
16D\	.	.	.	.	.	.	.
16C#\JJ	.	.	.	.	.	.	.
16BB/LL	.	.	.	4g#^>/	.	.	.
16D/	.	.	.	.	.	.	.
16C#/	.	.	.	.	.	.	.
16BB/JJ	.	.	.	.	.	.	.
=2	=2	=2	=2	=2	=2	=2	=2
!	!	!LO:SIC:o=4c#\	!	!	!	!	!
16AA\LL	.	4c#^	.	4a^\	.	1ryy	.
16C#\	.	.	.	.	.	.	.
16E\	.	.	.	.	.	.	.
16A\JJ	.	.	.	.	.	.	.
!	!	!LO:SIC:o=4e\	!	!	!	!	!
16G#\LL	.	4e^	.	4b^\	.	.	.
16E\	.	.	.	.	.	.	.
16F#\	.	.	.	.	.	.	.
16G#\JJ	.	.	.	.	.	.	.
!	!	!LO:SIC:o=[2e\	!	!	!	!	!
16A\LL	.	[2e^	.	2cc#^\	.	.	.
16G#\	.	.	.	.	.	.	.
16F#\	.	.	.	.	.	.	.
16E\JJ	.	.	.	.	.	.	.
16D/LL	.	.	.	.	.	.	.
16C#/	.	.	.	.	.	.	.
16BB/	.	.	.	.	.	.	.
16AA/JJ	.	.	.	.	.	.	.
=3	=3	=3	=3	=3	=3	=3	=3
16GG#/LL	.	2.e\_	.	2dd^\	.	1ryy	.
16AA/	.	.	.	.	.	.	.
16BB/	.	.	.	.	.	.	.
16C#/JJ	.	.	.	.	.	.	.
16D\LL	.	.	.	.	.	.	.
16E\	.	.	.	.	.	.	.
16F#\	.	.	.	.	.	.	.
16G#\JJ	.	.	.	.	.	.	.
16A\LL	.	.	.	4cc#^\	.	.	.
16G#\	.	.	.	.	.	.	.
16A\	.	.	.	.	.	.	.
16B\JJ	.	.	.	.	.	.	.
16c#\LL	.	8.e\L]	.	4a^\	.	.	.
16B\	.	.	.	.	.	.	.
16c#\	.	.	.	.	.	.	.
16A\JJ	.	16c#\Jk	.	.	.	.	.
=4	=4	=4	=4	=4	=4	=4	=4
!	!	!LO:SIC:o=(2d\	!	!	!	!	!
16G#\LL	.	(2d^	.	(2b^<\	.	1ryy	.
16A\	.	.	.	.	.	.	.
16B\	.	.	.	.	.	.	.
16A\JJ	.	.	.	.	.	.	.
16G#\LL	.	.	.	.	.	.	.
16E\	.	.	.	.	.	.	.
16F#\	.	.	.	.	.	.	.
16G#\JJ	.	.	.	.	.	.	.
16A\LL	.	4c#\)	.	4a\)	.	.	.
16E\	.	.	.	.	.	.	.
16C#\	.	.	.	.	.	.	.
16E\JJ	.	.	.	.	.	.	.
4AA/	.	4r	.	4r	.	.	.
!!LO:LB:g=original
=5	=5	=5	=5	=5	=5	=5	=5
!	!	!	!LO:DY:b	!	!	!	!
1ryy	.	2E/	f	2e/	f	16ccc#\LL	f
.	.	.	.	.	.	16bb\	.
.	.	.	.	.	.	16aa\	.
.	.	.	.	.	.	16gg#\JJ	.
.	.	.	.	.	.	16ff#\LL	.
.	.	.	.	.	.	16ee\	.
.	.	.	.	.	.	16dd\	.
.	.	.	.	.	.	16cc#\JJ	.
!	!	!	!	!LO:SIC:o=2d/	!	!	!
.	.	4F#^>/	.	2d^	.	16dd\LL	.
.	.	.	.	.	.	16ee\	.
.	.	.	.	.	.	16dd\	.
.	.	.	.	.	.	16cc#\JJ	.
.	.	4G#^>/	.	.	.	16b\LL	.
.	.	.	.	.	.	16dd\	.
.	.	.	.	.	.	16cc#\	.
.	.	.	.	.	.	16b\JJ	.
=6	=6	=6	=6	=6	=6	=6	=6
!	!	!	!	!LO:SIC:o=4c#/	!	!	!
1ryy	.	4A^>/	.	4c#^	.	16a\LL	.
.	.	.	.	.	.	16cc#\	.
.	.	.	.	.	.	16ee\	.
.	.	.	.	.	.	16aa\JJ	.
!	!	!	!	!LO:SIC:o=4d/	!	!	!
.	.	4B^>/	.	4d^	.	16gg#\LL	.
.	.	.	.	.	.	16ee\	.
.	.	.	.	.	.	16ff#\	.
.	.	.	.	.	.	16gg#\JJ	.
!	!	!	!	!LO:SIC:o=[2e/	!	!	!
.	.	2c#^\	.	[2e^	.	16aa\LL	.
.	.	.	.	.	.	16gg#\	.
.	.	.	.	.	.	16ff#\	.
.	.	.	.	.	.	16ee\JJ	.
.	.	.	.	.	.	16dd\LL	.
.	.	.	.	.	.	16cc#\	.
.	.	.	.	.	.	16b\	.
.	.	.	.	.	.	16a\JJ	.
=7	=7	=7	=7	=7	=7	=7	=7
1ryy	.	2d^\	.	2.e/_	.	16g#\LL	.
.	.	.	.	.	.	16a\	.
.	.	.	.	.	.	16b\	.
.	.	.	.	.	.	16cc#\JJ	.
.	.	.	.	.	.	16dd\LL	.
.	.	.	.	.	.	16ee\	.
.	.	.	.	.	.	16ff#\	.
.	.	.	.	.	.	16gg#\JJ	.
.	.	4c#^>\	.	.	.	16aa\LL	.
.	.	.	.	.	.	16gg#\	.
.	.	.	.	.	.	16aa\	.
.	.	.	.	.	.	16bb\JJ	.
.	.	4A^>/	.	8.e/L]	.	16ccc#\LL	.
.	.	.	.	.	.	16bb\	.
.	.	.	.	.	.	16ccc#\	.
.	.	.	.	16c#/Jk	.	16aa\JJ	.
=8	=8	=8	=8	=8	=8	=8	=8
!	!	!	!	!LO:SIC:o=(2d/	!	!	!
1ryy	.	(2B^>/	.	(2d^	.	16gg#\LL	.
.	.	.	.	.	.	16aa\	.
.	.	.	.	.	.	16bb\	.
.	.	.	.	.	.	16aa\JJ	.
.	.	.	.	.	.	16gg#\LL	.
.	.	.	.	.	.	16ee\	.
.	.	.	.	.	.	16ff#\	.
.	.	.	.	.	.	16gg#\JJ	.
.	.	4A/)	.	4c#/)	.	16aa\LL	.
.	.	.	.	.	.	16ee\	.
.	.	.	.	.	.	16cc#\	.
.	.	.	.	.	.	16ee\JJ	.
.	.	4r	.	4r	.	4a\	.
!!LO:LB:g=original
=9	=9	=9	=9	=9	=9	=9	=9
!	!	!	!LO:MO:null:mod=!LO&colon;DY&colon;ed=brack	!	!	!	!
!	!	!	!	!	!	!	!
!LO:N:vis=8	!	!	!LO:MO:null:mod=p	!LO:TX:b:i:t=espreſsivo	!	!	!
16r	.	(2c#\	.	(>2a/	p	1ryy	.
!	!LO:DY:b	!	!	!	!	!	!
16c#\LL	p	.	.	.	.	.	.
16B#X\	.	.	.	.	.	.	.
16c#\JJ	.	.	.	.	.	.	.
16d\LL	.	.	.	.	.	.	.
16c#\	.	.	.	.	.	.	.
16A\	.	.	.	.	.	.	.
16F#\JJ	.	.	.	.	.	.	.
16E#X\LL|	.	4B\	.	4g#/	.	.	.
(16c#\	.	.	.	.	.	.	.
16B#X\	.	.	.	.	.	.	.
16c#\JJ)	.	.	.	.	.	.	.
!	!	!LO:SIC:o=4A/	!	!	!	!	!
16F#\LL|	.	4A)	.	4f#/)	.	.	.
(16c#\	.	.	.	.	.	.	.
16B#\	.	.	.	.	.	.	.
16c#\JJ)	.	.	.	.	.	.	.
=10	=10	=10	=10	=10	=10	=10	=10
!	!	!LO:SIC:o=4G#/)	!	!	!	!	!
16G#\LL|	.	(4G#	.	(>4e#X/	.	1ryy	.
(16c#\	.	.	.	.	.	.	.
16B#X\	.	.	.	.	.	.	.
16c#\JJ)	.	.	.	.	.	.	.
!	!	!LO:SIC:o=(4c#\	!	!	!	!	!
16A\LL|	.	4c#	.	4f#/	.	.	.
(16c#\	.	.	.	.	.	.	.
16B#\	.	.	.	.	.	.	.
16c#\JJ)	.	.	.	.	.	.	.
!	!	!LO:SIC:o=(2e#X\)	!	!	!	!	!
16Bn\LL	.	2e#)	.	2g#/)	.	.	.
16c#\	.	.	.	.	.	.	.
16B\	.	.	.	.	.	.	.
16A\JJ	.	.	.	.	.	.	.
16G#\LL	.	.	.	.	.	.	.
16B\	.	.	.	.	.	.	.
16A\	.	.	.	.	.	.	.
16G#\JJ	.	.	.	.	.	.	.
=11	=11	=11	=11	=11	=11	=11	=11
!	!	!LO:SIC:o=1f#	!	!	!	!	!
(16F#\LL	.	(1f#	<	(4a\	.	1ryy	.
16A\)	.	.	.	.	.	.	.
16c#'\	.	.	.	.	.	.	.
16f#'\JJ	.	.	.	.	.	.	.
8ao\L	.	.	.	4cc#\)	.	.	.
[8A\J	.	.	.	.	.	.	.
!	!	!	!LO:MO:mod=.	!	!	!	!
16A\LL]	.	.	[	2dd#Xt\	<	.	.
16G#\	.	.	.	.	.	.	.
16F#\	.	.	.	.	.	.	.
16G#\JJ	.	.	.	.	.	.	.
16A\LL	.	.	.	.	.	.	.
!	!	!	!	!	!LO:MO:mod=.	!	!
16F#\	.	.	.	.	[	.	.
16B\	.	.	.	.	.	.	.
16A\JJ	.	.	.	.	.	.	.
.	.	.	.	(16qqcc#/LL	.	.	.
!	!	!	!LO:MO:null:mod=[	!	!LO:MO:null:mod=[	!	!
.	.	.	.	16qqdd#/JJ)	.	.	.
=12	=12	=12	=12	=12	=12	=12	=12
!	!LO:MO:mod=!null:null	!	!	!	!	!	!
!LO:TX:a:t=P:problem:mixed beam	!LO:HP:a	!	!	!	!	!	!
8G#\L	<	4en\)	>	(2ee\	>	1ryy	.
16EE/L	.	.	.	.	.	.	.
!	!	!	!LO:MO:null:mod=]	!	!	!	!
16FF#/JJ	.	.	.	.	.	.	.
!	!	!	!LO:MO:mod=.	!	!	!	!
(16GG#/LL	.	4r	]	.	.	.	.
16AA/)	.	.	.	.	.	.	.
16BB'/	.	.	.	.	.	.	.
16C#'/JJ	.	.	.	.	.	.	.
16D\LL	.	2rA	.	4e/)	]	.	.
16D#X\	.	.	.	.	.	.	.
16E\	.	.	.	.	.	.	.
16F#\JJ	.	.	.	.	.	.	.
16G#\LL	.	.	.	4r	.	.	.
16A\	.	.	.	.	.	.	.
16B\	.	.	.	.	.	.	.
16B#X\JJ	[[	.	.	.	.	.	.
!!LO:PB:g=original
=13	=13	=13	=13	=13	=13	=13	=13
!LO:TX:a:i:t=risoluto	!	!LO:MO:mod=!null:null	!	!	!	!	!
!	!	!LO:N:vis=1	!LO:MO:mod=.	!	!	!	!
16c#\LL	f	2r	f	2e/	f	1ryy	.
16B\	.	.	.	.	.	.	.
16A\	.	.	.	.	.	.	.
16G#\JJ	.	.	.	.	.	.	.
16F#\LL	.	.	.	.	.	.	.
16E\	.	.	.	.	.	.	.
16D\	.	.	.	.	.	.	.
16C#\JJ	.	.	.	.	.	.	.
!	!	!	!LO:MO:null:mod=f	!	!	!	!
16D\LL	.	2d\	.	4f#^>/	.	.	.
16E\	.	.	.	.	.	.	.
16D\	.	.	.	.	.	.	.
16C#\JJ	.	.	.	.	.	.	.
16BB/LL	.	.	.	4g#^>/	.	.	.
16D/	.	.	.	.	.	.	.
16C#/	.	.	.	.	.	.	.
16BB/JJ	.	.	.	.	.	.	.
=14	=14	=14	=14	=14	=14	=14	=14
!	!	!LO:SIC:o=4c#\	!	!	!	!	!
16AA\LL	.	4c#^	.	4a^\	.	1ryy	.
16C#\	.	.	.	.	.	.	.
16E\	.	.	.	.	.	.	.
16G#\JJ	.	.	.	.	.	.	.
16F#\LL	.	2.e^\	.	4b^\	.	.	.
16E\	.	.	.	.	.	.	.
16F#\	.	.	.	.	.	.	.
16G#\JJ	.	.	.	.	.	.	.
16A\LL	.	.	.	2cc#^\	.	.	.
16G#\	.	.	.	.	.	.	.
16F#\	.	.	.	.	.	.	.
16E\JJ	.	.	.	.	.	.	.
16D/LL	.	.	.	.	.	.	.
16C#/	.	.	.	.	.	.	.
16BB/	.	.	.	.	.	.	.
16AA/JJ	.	.	.	.	.	.	.
=15	=15	=15	=15	=15	=15	=15	=15
16AA/LL	.	[2.e^\	.	2dd^\	.	1ryy	.
16AA/	.	.	.	.	.	.	.
16BB/	.	.	.	.	.	.	.
16C#/JJ	.	.	.	.	.	.	.
16D\LL	.	.	.	.	.	.	.
16E\	.	.	.	.	.	.	.
16F#\	.	.	.	.	.	.	.
16G#\JJ	.	.	.	.	.	.	.
16A\LL	.	.	.	4cc#^\	.	.	.
16G#\	.	.	.	.	.	.	.
16A\	.	.	.	.	.	.	.
16B\JJ	.	.	.	.	.	.	.
16c#\LL	.	8.e\L]	.	4a^\	.	.	.
16B\	.	.	.	.	.	.	.
16c#\	.	.	.	.	.	.	.
16A\JJ	.	16c#\Jk	.	.	.	.	.
=16	=16	=16	=16	=16	=16	=16	=16
16G#\LL	.	(2d^<\	.	(2b^<\	.	1ryy	.
16A\	.	.	.	.	.	.	.
16B\	.	.	.	.	.	.	.
16A\JJ	.	.	.	.	.	.	.
16G#\LL	.	.	.	.	.	.	.
16E\	.	.	.	.	.	.	.
16F#\	.	.	.	.	.	.	.
16G#\JJ	.	.	.	.	.	.	.
16A\LL	.	4c#\)	.	4a\)	.	.	.
16E\	.	.	.	.	.	.	.
16C#\	.	.	.	.	.	.	.
16E\JJ	.	.	.	.	.	.	.
4AA/	.	4r	.	4r	.	.	.
!!LO:LB:g=original
=17	=17	=17	=17	=17	=17	=17	=17
!	!	!LO:MO:mod=!LO&colon;TX&colon;a&colon;i&colon;t=espressivo	!	!LO:MO:mod=!LO&colon;TX&colon;a&colon;i&colon;t=[espressivo]	!	!	!
!	!	!LO:TX:b:i:t=espreſsivo	!	!null	!	!LO:N:vis=8	!
1ryy	.	(>2A/	p	(>2c#/	.	16r	.
.	.	.	.	.	.	16cc#\LL	p
.	.	.	.	.	.	16b#X\	.
.	.	.	.	.	.	16cc#\JJ	.
.	.	.	.	.	.	16dd\LL	.
.	.	.	.	.	.	16cc#\	.
.	.	.	.	.	.	16a\	.
.	.	.	.	.	.	16f#\JJ	.
.	.	4G#/	.	4B/	.	16e#X\LL|	.
.	.	.	.	.	.	(16cc#\	.
.	.	.	.	.	.	16b#\	.
.	.	.	.	.	.	16cc#\JJ)	.
.	.	4F#/)	.	4A/)	.	16f#\LL|	.
.	.	.	.	.	.	(16cc#\	.
.	.	.	.	.	.	16b#\	.
.	.	.	.	.	.	16cc#\JJ)	.
=18	=18	=18	=18	=18	=18	=18	=18
1ryy	.	(>4E#X/	.	[1c#	.	16g#\LL|	.
.	.	.	.	.	.	(16cc#\	.
.	.	.	.	.	.	16b#X\	.
.	.	.	.	.	.	16cc#\JJ)	.
.	.	4F#/	.	.	.	16a\LL|	.
.	.	.	.	.	.	(16cc#\	.
.	.	.	.	.	.	16b#\	.
.	.	.	.	.	.	16cc#\JJ)	.
.	.	2G#/)	.	.	.	16bn\LL	.
.	.	.	.	.	.	16cc#\	.
.	.	.	.	.	.	16b\	.
.	.	.	.	.	.	16a\JJ	.
.	.	.	.	.	.	16g#/LL	.
.	.	.	.	.	.	16b/	.
.	.	.	.	.	.	16a/	.
.	.	.	.	.	.	16g#/JJ	.
=19	=19	=19	=19	=19	=19	=19	=19
1ryy	.	(4A\	<	4c#/]	.	(16f#\LL	<
.	.	.	.	.	.	16a\)	.
.	.	.	.	.	.	16cc#'\	.
.	.	.	.	.	.	16ff#'\JJ	.
.	.	4c#\)	[	(2.f#^>/	.	8aa\L	[ >
!	!	!	!	!	!	!	!LO:MO:null:mod=]
.	.	.	.	.	.	[8a\J	.
!	!	!	!	!	!	!	!LO:MO:mod=.
.	.	2d#Xtt\	>	.	.	16a\LL]	]
!	!	!	!	!	!	!	!LO:MO:null:mod=p
.	.	.	.	.	.	16g#\	.
!	!	!	!	!	!	!	!LO:MO:mod=.
.	.	.	.	.	.	16f#\	p
!	!	!	!LO:MO:mod=.	!	!	!	!
.	.	.	]	.	.	16g#\JJ	.
.	.	.	.	.	.	16a\LL	.
.	.	.	.	.	.	16f#\	.
.	.	.	.	.	.	16b\	.
.	.	.	.	.	.	16a\JJ	.
.	.	(16qqc#/LL	.	.	.	.	.
!	!	!	!LO:MO:null:mod=]	!	!	!	!
.	.	16qqd#/JJ)	.	.	.	.	.
=20	=20	=20	=20	=20	=20	=20	=20
1ryy	.	(2e\	.	4e/)	.	8g#/L	<
.	.	.	.	.	.	16e/L	.
.	.	.	.	.	.	16f#/JJ	.
.	.	.	.	4r	.	(16g#/LL	.
.	.	.	.	.	.	16a/)	.
.	.	.	.	.	.	16b'/	.
.	.	.	.	.	.	16cc#'/JJ	.
.	.	4E/)	.	2rg	.	16dd'\LL	.
.	.	.	.	.	.	16dd#X'\	.
.	.	.	.	.	.	16ee'\	.
.	.	.	.	.	.	16ff#'\JJ	.
.	.	4r	.	.	.	16gg#'\LL	.
.	.	.	.	.	.	16aa'\	.
.	.	.	.	.	.	16bb'\	.
.	.	.	.	.	.	16bb#X'\JJ	[[
!!LO:LB:g=original
=21	=21	=21	=21	=21	=21	=21	=21
!	!LO:MO:null:mod=!LO&colon;DY&colon;ed=brack	!	!	!	!	!	!
!	!	!	!	!	!	!LO:MO:mod=!null:null	!
!	!LO:MO:null:mod=f	!	!	!	!	!LO:TX:b:i:t=risoluto.	!
2E\	.	2E/	f	2e/	f	16ccc#\LL	f
!	!	!	!	!	!	!LO:MO:mod=!LO&colon;TX&colon;b&colon;i&colon;t=risoluto	!
!	!	!	!	!	!	!null	!
.	.	.	.	.	.	16bb\	.
.	.	.	.	.	.	16aa\	.
.	.	.	.	.	.	16gg#\JJ	.
.	.	.	.	.	.	16ff#\LL	.
.	.	.	.	.	.	16ee\	.
.	.	.	.	.	.	16dd\	.
.	.	.	.	.	.	16cc#\JJ	.
4F#^\	.	4F#^>/	.	2d^>/	.	16dd\LL	.
.	.	.	.	.	.	16ee\	.
.	.	.	.	.	.	16dd\	.
.	.	.	.	.	.	16cc#\JJ	.
4G#^\	.	4G#^>/	.	.	.	16b\LL	.
.	.	.	.	.	.	16dd\	.
.	.	.	.	.	.	16cc#\	.
.	.	.	.	.	.	16b\JJ	.
=22	=22	=22	=22	=22	=22	=22	=22
4A^\	.	4A^>/	.	4c#^>/	.	16a\LL	.
.	.	.	.	.	.	16cc#\	.
.	.	.	.	.	.	16ff#\	.
.	.	.	.	.	.	16aa\JJ	.
4B^\	.	4B^>/	.	4d^>/	.	16gg#\LL	.
.	.	.	.	.	.	16ee\	.
.	.	.	.	.	.	16ff#\	.
.	.	.	.	.	.	16gg#\JJ	.
2c#^\	.	2c#^\	.	[2e^>/	.	16aa\LL	.
.	.	.	.	.	.	16gg#\	.
.	.	.	.	.	.	16ff#\	.
.	.	.	.	.	.	16ee\JJ	.
.	.	.	.	.	.	16dd\LL	.
.	.	.	.	.	.	16cc#\	.
.	.	.	.	.	.	16b\	.
.	.	.	.	.	.	16a\JJ	.
=23	=23	=23	=23	=23	=23	=23	=23
2d^\	.	2d^\	.	2.e/]	.	16g#\LL	.
.	.	.	.	.	.	16a\	.
.	.	.	.	.	.	16b\	.
.	.	.	.	.	.	16cc#\JJ	.
.	.	.	.	.	.	16dd\LL	.
.	.	.	.	.	.	16ee\	.
.	.	.	.	.	.	16ff#\	.
.	.	.	.	.	.	16gg#\JJ	.
4c#^\	.	4c#^\	.	.	.	16aa\LL	.
.	.	.	.	.	.	16gg#\	.
.	.	.	.	.	.	16aa\	.
.	.	.	.	.	.	16bb\JJ	.
!	!	!	!	!LO:SIC:o=4c#/ 4e	!	!	!
4B^\	.	4A^\	.	4c#^ 4e	.	16ccc#\LL	.
.	.	.	.	.	.	16bb\	.
.	.	.	.	.	.	16ccc#\	.
.	.	.	.	.	.	16aa\JJ	.
=24	=24	=24	=24	=24	=24	=24	=24
(2B^<\	.	(>2B^/	.	(2d^>/ [2e	.	16gg#\LL	.
.	.	.	.	.	.	16aa\	.
.	.	.	.	.	.	16bb\	.
.	.	.	.	.	.	16aa\JJ	.
.	.	.	.	.	.	16gg#\LL	.
.	.	.	.	.	.	16ee\	.
.	.	.	.	.	.	16ff#\	.
.	.	.	.	.	.	16gg#\JJ	.
4A\)	.	4A/)	.	4c#/) 4e]	.	16aa\LL	.
.	.	.	.	.	.	16ee\	.
.	.	.	.	.	.	16cc#\	.
.	.	.	.	.	.	16ee\JJ	.
4r;	.	4r;	.	4r;	.	8a\	.
.	.	.	.	.	.	8r;	.
!!LO:PB:g=original
==	==	==	==	==	==	==	==
*-	*-	*-	*-	*-	*-	*-	*-
!!!system-decoration: [(s1,s2,s3,s4)]
!!!RDF**kern: < = below
!!!RDF**kern: > = above
!!!RDF**kern: | = vertical stroke
!!!filter-modern: sic -sq | autostem -r | shed -e "s/yy//" | shed -k -e "s/[<>]//g" | shed -e "s/TX(.*):t=P:/tx$1:t=P:/LG" | shed -k -e "s/r[a-gA-G]+/r/D" | humtr -p | modori -m
!!!ENC: Berenika Jozajtis
!!!END: 2021-04-06
!!!EED: Marta Chmielewska
!!!EEV: 2021-04-12
!!!ENC-modern: Marta Lawrence
!!!END-modern: 2022-07-30
